X:1
T:James Gibb editions
T:Holy Father, hear me - Barnby
%%score [ ( 1 2 ) ( 3 4 ) ]
L:1/8
Q:1/4=100
M:4/4
K:A
V:1 treble nm="Midi_74"
V:2 treble 
V:3 bass nm="Midi_74"
V:4 bass 
V:1
"^Nomen Domini (66. 66)""^Holy Father, hear me""^Joseph Barnby\n(1838-96)""^Edward Henry Bickersteth\n(1825-1906)" E2 E2 A2 G2 | %1
 G4 F4 || F2 c2 B2 =A2 | A4 G4 ||[M:4/4] B2!<(! B2 c2!<)! d2 |!>(! e4 d4!>)! || F2 G2"^1" A2 d2 | %7
 (B6 c2) | A8 || F4 E4 |] %10
V:2
 C2 C2 D2 E2 | E4 D4 || D2 E2 F2 F2 | E4 E4 ||[M:4/4] E2 E2 E2 D2 | C4 D4 || F2 ^E2 F2 F2 | %7
 (D6 E2) | C8 || D4 C4 |] %10
V:3
 A,2 A,2 A,2 A,2 | A,4 A,4 || B,2 ^A,2 B,2 D2 | C4 B,4 ||[M:4/4] G,2 G,2 A,2 G,2 | =G,4 F,4 || %6
 B,2 B,2 A,2 A,2 | A,2 F,2 G,4 | A,8 || A,4 A,4 |] %10
V:4
 A,,2 A,,2 B,,2 C,2 | D,4 D,4 || B,,2 C,2 D,2 D,2 | E,4 E,4 ||[M:4/4] D,2 D,2 C,2 B,,2 | %5
 ^A,,4 B,,4 || D,2 C,2 F,2 B,,2 | E,8 | A,,8 || D,4 A,,4 |] %10

